src/icons/svgs/16/right-from-bracket.svg

<svg width="16" height="16" viewBox="0 0 16 16" fill="none" xmlns="http://www.w3.org/2000/svg">
<path d="M3.625 14H5.375C5.85898 14 6.25 13.617 6.25 13.1429C6.25 12.6687 5.85898 12.2857 5.375 12.2857H3.625C3.14184 12.2857 2.75 11.9019 2.75 11.4286V4.57143C2.75 4.09812 3.14184 3.71429 3.625 3.71429H5.375C5.85898 3.71429 6.25 3.33045 6.25 2.85714C6.25 2.38384 5.85898 2 5.375 2H3.625C2.17523 2 1 3.15125 1 4.57143V11.4286C1 12.8482 2.17523 14 3.625 14ZM14.8031 7.53125L10.8629 3.88839C10.7695 3.80224 10.6525 3.74469 10.5262 3.72283C10.3999 3.70096 10.2698 3.71574 10.152 3.76534C10.0342 3.8151 9.93386 3.89754 9.86335 4.00249C9.79285 4.10745 9.75525 4.23032 9.7552 4.35596L9.75268 6.28454L6.25268 6.28451C5.76897 6.28451 5.37713 6.66835 5.37713 7.14165V8.85594C5.37713 9.32924 5.76924 9.71308 6.25268 9.71308L9.75268 9.71311L9.7552 11.6176C9.75527 11.7432 9.79288 11.8661 9.86338 11.971C9.93388 12.076 10.0342 12.1584 10.152 12.2082C10.3927 12.3095 10.6723 12.2613 10.8629 12.0851L14.8031 8.44229C15.0656 8.225 15.0656 7.775 14.8031 7.53125Z" fill="black"/>
</svg>

<svg width="16" height="16" viewBox="0 0 16 16" xmlns="http://www.w3.org/2000/svg">
    <path d="M3.625 14h1.75a.865.865 0 0 0 .875-.857.865.865 0 0 0-.875-.857h-1.75a.866.866 0 0 1-.875-.857V4.57c0-.473.392-.857.875-.857h1.75a.866.866 0 0 0 .875-.857A.866.866 0 0 0 5.375 2h-1.75C2.175 2 1 3.151 1 4.571v6.858C1 12.849 2.175 14 3.625 14zm11.178-6.469-3.94-3.643a.663.663 0 0 0-1 .114.634.634 0 0 0-.108.354l-.002 1.929h-3.5a.866.866 0 0 0-.876.857v1.714c0 .473.392.857.876.857h3.5l.002 1.905c0 .125.038.248.108.353a.668.668 0 0 0 1 .114l3.94-3.643c.263-.217.263-.667 0-.91z"/>
</svg>
